!!!OTL: Youjidui dadehao
!!!ARE: Asia, China,ÿJiangsu Pixian
!! III, 461, 1)
!!!SCT: C2025
!!!YEM: Copyright 1995, estate of Helmut Schaffrath.
**kern
*ICvox
*Ivox
*M2/4
*k[b-]
*F:
{4ff
8a
8cc
=1
4ff
8dd
8cc
=2
8cc
8dd
8cc
16a
16cc
=3
8cc
8a
4g}
=4
{8.g
16a
4cc
=5
4dd
8a
8g
=6
8f
8a
8g
8f
=7
2c}
=8
{8c
8e
4f
=9
8e
8cc
8a
8cc
=10
8g
8a
8g
8f
=11
4.f
8r}
=12
{8.g
16a
4cc
=13
8.cc
16a
4g
=14
8cc
4f
8cc
=15
8.d
16g
16g
16f
16d
16f
=16
2c}
==
!!!AGN: Xiaodiao, Gewu, Gaoqiao diao
!!!AMT: simple duple
!!!AIN: vox
!!!EED: Helmut Schaffrath
!!!EEV: 1.0
*-
